X:75
T:Merlin's Dream
M:C|
L:1/8
C:© Paul Gitlitz 1988
R:Air
B:Giblitz Fancy
N: Another in the dream sequence.
K:Dm
A,2|:"Dm"DEFG Ad"C"c2|"F"AGFA "C"GECE|"Dm"DEFG "F"A=Bc>d|"C"cAGE "Dm"FDD2|!
"Dm"dcAd "C"cAG2|"F"AGFA "C"GEC>E|"Dm"D^CDE "F"Ffed|"C"cAGE "Dm"FDD2:|!
|:"F"a2fd "Am"ecA2|A=Bcd ef"Dm"d2|DF "C"EG "F"FA "Bb"GB| "Am"AGFD "A"E^C "Dm"D2|!
"Dm"dcAd "C"cAG2|"F"AGFA "C"GEC>E|"Dm"D^CDE "F"Ffed|"C"cAGE "Dm"FDD2:|]
